16x16/places/folder-code.svg

<svg xmlns="http://www.w3.org/2000/svg" width="16" height="16" version="1.1">
 <defs>
  <style id="current-color-scheme" type="text/css">
   .ColorScheme-Text { color:#323a41; } .ColorScheme-Highlight { color:#4285f4; } .ColorScheme-NeutralText { color:#ff9800; } .ColorScheme-PositiveText { color:#4caf50; } .ColorScheme-NegativeText { color:#f44336; }
  </style>
 </defs>
 <g style="fill:#1d344f" transform="matrix(0.66667222,0,0,0.68745019,-8.0001333,-13.123904)">
  <path style="fill:currentColor" class="ColorScheme-Text" transform="matrix(1.4999875,0,0,1.4546508,12.0001,19.090698)" d="M 8.7636719 2.0195312 L 6.0019531 12.644531 L 7.2910156 13 L 10 2.5703125 L 10 2.3613281 L 8.7636719 2.0195312 z M 11 2.3066406 L 11 4.3691406 L 13.666016 6.8125 L 11 9.2558594 L 11 11.330078 L 16 6.9042969 L 11 2.3066406 z M 5 3.6816406 L 0 8.2792969 L 5 12.705078 L 5 10.630859 L 2.3339844 8.1875 L 5 5.7441406 L 5 3.6816406 z"/>
 </g>
</svg>

<svg xmlns="http://www.w3.org/2000/svg" width="16" height="16"><defs><style id="current-color-scheme" type="text/css"></style></defs><g style="fill:#1d344f"><path style="fill:currentColor;color:#323a41" d="M8.764 2.02 6.002 12.645 7.291 13 10 2.57v-.209L8.764 2.02zM11 2.307v2.062l2.666 2.444L11 9.255v2.074l5-4.426-5-4.597zM5 3.682 0 8.279l5 4.426v-2.074L2.334 8.187 5 5.745V3.682z"/></g></svg>
